material/.icons/material/bookmark-remove-outline.svg

<svg xmlns="http://www.w3.org/2000/svg" viewBox="0 0 24 24"><path d="M7 3c-1.1 0-2 .9-2 2v16l7-3 7 3V5a2 2 0 00-2-2H7m0 2h10v13l-5-2.18L7 18V5m2.88 2.47L8.47 8.88 10.59 11l-2.12 2.12 1.41 1.42L12 12.42l2.12 2.11 1.42-1.41L13.42 11l2.11-2.12-1.41-1.41L12 9.59 9.88 7.47z"/></svg>

<?xml version="1.0" encoding="UTF-8"?><!DOCTYPE svg PUBLIC "-//W3C//DTD SVG 1.1//EN" "http://www.w3.org/Graphics/SVG/1.1/DTD/svg11.dtd"><svg xmlns="http://www.w3.org/2000/svg" xmlns:xlink="http://www.w3.org/1999/xlink" version="1.1" id="mdi-bookmark-remove-outline" width="24" height="24" viewBox="0 0 24 24"><path d="M7 3C5.9 3 5 3.9 5 5V21L12 18L19 21V5C19 3.89 18.1 3 17 3H7M7 5H17V18L12 15.82L7 18V5M9.88 7.47L8.47 8.88L10.59 11L8.47 13.12L9.88 14.54L12 12.42L14.12 14.53L15.54 13.12L13.42 11L15.53 8.88L14.12 7.47L12 9.59L9.88 7.47Z" /></svg>
